X: 1
T: Fog In The Bog, The
M: 6/8
L: 1/8
R: jig
K: Dmaj
fef d2B|AFA ABd|~f3 dBA|B2e ede|
fef d2B|AFA ABd|~f3 afd|ede f2e:|
dfa afe|dfa a2f|dfa afd|edB dBA|
dfa afe|dfa a2g|fef dBA|1ABd e2f:|2ABd ede||
